X:58
T:Frost is all over, The
R:song
H:Also jig#206, jig#202
D:Planxty
Z:id:hn-song-58
M:6/8
K:D
def edB | AFD (FE)D | DFA AFA | Bee e2
d | def edB | AFD (FE)D | DFA AFA | Bdd d2 ||
e | fdd ede | fdd d2e | fef def | gfg e2g |
fed B2A | AdF G2A | ABA F2E | EDD D3 ||
P:alternate melody
AFD DFA | Add B2A | ABA FDD | FEF E2
A | AFD DFA | Add B2A | ABA FEE | EDD D2 ||
e | fdd ede | fdd d2e | fef def | gfg e2g |
fed B2A | AdF G2A | ABA F2E | EDD D3 ||
W:What would you do if the kettle boiled over?
W:What would I do? Only fill it again.
W:And what would you do if the cow ate the clover?
W:What would I do only set it again.
W:(lilt 2nd part)
W:
W:The praties are dug and the frost is all over
W:Kitty lie over close to the wall.
W:How would you like to be married to a soldier?
W:Kitty lie over close to the wall.
W:(lilt 2nd part)
W:
W:The praties all boil and the herring's a roasting
W:Kitty lie over close to the wall.
W:You to be drunk and me to be sober
W:Kitty lie over close to the wall.
W:(lilt 2nd part)
W:
W:What would you do if you married a soldier
W:what would you do would you follow his gun?
W:And what would you do if he drowned in the ocean
W:what would you do would you marry again?
W:(lilt 2nd part)

